!!!!SEGMENT: pl-cz--i-17--003_maintzer-franz--partita-es-presto.krn
!!!cenid: 17xx:2176
!!!COM: Maintzer, Franz
!!!COM-rismid: pe30102207
!!!CDT: <1781->1785
!!!CNT:
!!!OTL: Partita Es - Presto
!!!PDT:
!!!AGN: Secular
!!!SMS-siglum: PL-CZ
!!!SMS-shelfmark: I-17
!!!SMS-shelfwork: 001-003 M
!!!SMS-variant:
!!!SMS-altvar:
!!!NIFC-rismid: 300000800
!!!URL-scan: http://repozytorium.nifc.pl/skany/pl-cz-nut--i-17
!!!ONB-nifc: UWAGA: części Partity: 1. Allegro molto, 2. Andante, 3. Presto. 2 cor, reszta partii zaginiona
**kern	**dynam	**kern	**kern	**kern	**kern	**kern	**kern	**kern
*group2	*group2	*group2	*group1	*group1	*group1	*group1	*group1	*group1
*part6	*part6	*part5	*part8	*part7	*part2	*part1	*part4	*part3
*staff6	*	*staff5	*staff8	*staff7	*staff2	*staff1	*staff4	*staff3
*I"Cornu Secondo in B.	*	*I"Cornu Primo. in Dis.	*I"Fagotto Secondo.	*I"Fagotto Primo	*I"Clarinetto Secondo in B.	*I"Clarinetto Primo in B.	*I"Oboae Secondo.	*I"Oboae Primo.
*I'cor 2 in B|b	*	*I'cor 1 in D|x	*I'fag 2	*I'fag 1	*I'cl 2 in B|b	*I'cl 1 in B|b	*I'ob 2	*I'ob 1
*clefG2	*	*clefG2	*clefF4	*clefF4	*clefG2	*clefG2	*clefG2	*clefG2
*ITrd1c2	*	*ITrd5c9	*	*	*ITrd1c2	*ITrd1c2	*	*
*k[b-e-]	*	*k[b-e-]	*k[b-e-]	*k[b-e-]	*k[b-e-]	*k[b-e-]	*k[b-e-]	*k[b-e-]
*B-:	*	*B-:	*B-:	*B-:	*B-:	*B-:	*B-:	*B-:
*M2/4	*	*M2/4	*M2/4	*M2/4	*M2/4	*M2/4	*M2/4	*M2/4
=1	=1	=1	=1	=1	=1	=1	=1	=1
*2\right	*	*	*	*	*	*	*	*
!	!LO:DY:b:t=for.	!LO:TX:t=P:problem:partia nie zachowała się	!LO:TX:t=P:problem:partia nie zachowała się	!LO:TX:t=P:problem:partia nie zachowała się	!LO:TX:t=P:problem:partia nie zachowała się	!LO:TX:t=P:problem:partia nie zachowała się	!LO:TX:t=P:problem:partia nie zachowała się	!LO:TX:t=P:problem:partia nie zachowała się
(<4B-/	f	2ryy	2ryy	2ryy	2ryy	2ryy	2ryy	2ryy
8F/L)	.	.	.	.	.	.	.	.
8d|</J	.	.	.	.	.	.	.	.
=2	=2	=2	=2	=2	=2	=2	=2	=2
(<4B-/	.	2ryy	2ryy	2ryy	2ryy	2ryy	2ryy	2ryy
8F/L)	.	.	.	.	.	.	.	.
8d|</J	.	.	.	.	.	.	.	.
=3	=3	=3	=3	=3	=3	=3	=3	=3
8B-/L	.	2ryy	2ryy	2ryy	2ryy	2ryy	2ryy	2ryy
8f/	.	.	.	.	.	.	.	.
8b-/	.	.	.	.	.	.	.	.
8cc/J	.	.	.	.	.	.	.	.
=4	=4	=4	=4	=4	=4	=4	=4	=4
!LO:TX:t=P:problem:all\right:global	!	!	!	!	!	!	!	!
8dd\L	.	2ryy	2ryy	2ryy	2ryy	2ryy	2ryy	2ryy
8cc\J	.	.	.	.	.	.	.	.
4b-\	.	.	.	.	.	.	.	.
=5	=5	=5	=5	=5	=5	=5	=5	=5
!	!LO:DY:b:t=p.	!	!	!	!	!	!	!
8cc\L	p	2ryy	2ryy	2ryy	2ryy	2ryy	2ryy	2ryy
16cc\L	.	.	.	.	.	.	.	.
16cc\JJ	.	.	.	.	.	.	.	.
8cc\L	.	.	.	.	.	.	.	.
8cc\J	.	.	.	.	.	.	.	.
=6	=6	=6	=6	=6	=6	=6	=6	=6
2dd\	.	2ryy	2ryy	2ryy	2ryy	2ryy	2ryy	2ryy
=7	=7	=7	=7	=7	=7	=7	=7	=7
8cc\L	.	2ryy	2ryy	2ryy	2ryy	2ryy	2ryy	2ryy
16cc\L	.	.	.	.	.	.	.	.
16cc\JJ	.	.	.	.	.	.	.	.
8cc\L	.	.	.	.	.	.	.	.
8cc\J	.	.	.	.	.	.	.	.
=8	=8	=8	=8	=8	=8	=8	=8	=8
4dd\	.	2ryy	2ryy	2ryy	2ryy	2ryy	2ryy	2ryy
4r	.	.	.	.	.	.	.	.
=9:|!|:	=9:|!|:	=9:|!|:	=9:|!|:	=9:|!|:	=9:|!|:	=9:|!|:	=9:|!|:	=9:|!|:
*^	*	*	*	*	*	*	*	*
!	!LO:TX:t=P:problem:nuta z partii innego instrumentu	!	!	!	!	!	!	!	!
2rb	4.ff/	.	2ryy	2ryy	2ryy	2ryy	2ryy	2ryy	2ryy
.	8ryy	.	.	.	.	.	.	.	.
*v	*v	*	*	*	*	*	*	*	*
=10	=10	=10	=10	=10	=10	=10	=10	=10
!	!LO:DY:b:t=for.	!	!	!	!	!	!	!
8cc\L	f	2ryy	2ryy	2ryy	2ryy	2ryy	2ryy	2ryy
8cc\J	.	.	.	.	.	.	.	.
4cc\	.	.	.	.	.	.	.	.
!LO:LB:g=original	!	!	!	!	!	!	!	!
=11	=11	=11	=11	=11	=11	=11	=11	=11
*^	*	*	*	*	*	*	*	*
!	!LO:TX:t=P:problem:nuta z partii innego instrumentu	!	!	!	!	!	!	!	!
2rb	4.ff/	.	2ryy	2ryy	2ryy	2ryy	2ryy	2ryy	2ryy
.	8ryy	.	.	.	.	.	.	.	.
*v	*v	*	*	*	*	*	*	*	*
=12	=12	=12	=12	=12	=12	=12	=12	=12
8dd\L	.	2ryy	2ryy	2ryy	2ryy	2ryy	2ryy	2ryy
8dd\J	.	.	.	.	.	.	.	.
4dd\	.	.	.	.	.	.	.	.
=13	=13	=13	=13	=13	=13	=13	=13	=13
(<4B-/	.	2ryy	2ryy	2ryy	2ryy	2ryy	2ryy	2ryy
8F/L)	.	.	.	.	.	.	.	.
8d|</J	.	.	.	.	.	.	.	.
=14	=14	=14	=14	=14	=14	=14	=14	=14
4f/	.	2ryy	2ryy	2ryy	2ryy	2ryy	2ryy	2ryy
8f/L	.	.	.	.	.	.	.	.
8f/J	.	.	.	.	.	.	.	.
=15	=15	=15	=15	=15	=15	=15	=15	=15
4b-\	.	2ryy	2ryy	2ryy	2ryy	2ryy	2ryy	2ryy
4r	.	.	.	.	.	.	.	.
=16	=16	=16	=16	=16	=16	=16	=16	=16
8r	.	2ryy	2ryy	2ryy	2ryy	2ryy	2ryy	2ryy
8B-/L	.	.	.	.	.	.	.	.
8B-/	.	.	.	.	.	.	.	.
8B-/J	.	.	.	.	.	.	.	.
=17	=17	=17	=17	=17	=17	=17	=17	=17
2B-/	.	2ryy	2ryy	2ryy	2ryy	2ryy	2ryy	2ryy
=18	=18	=18	=18	=18	=18	=18	=18	=18
2B-/	.	2ryy	2ryy	2ryy	2ryy	2ryy	2ryy	2ryy
=19	=19	=19	=19	=19	=19	=19	=19	=19
4f/	.	2ryy	2ryy	2ryy	2ryy	2ryy	2ryy	2ryy
4f/	.	.	.	.	.	.	.	.
=20	=20	=20	=20	=20	=20	=20	=20	=20
4d/	.	2ryy	2ryy	2ryy	2ryy	2ryy	2ryy	2ryy
!LO:TX:i:a:t=Trio Tacet Presto\nDa Copo.	!	!	!	!	!	!	!	!
4r	.	.	.	.	.	.	.	.
==	==	==	==	==	==	==	==	==
*-	*-	*-	*-	*-	*-	*-	*-	*-
!!!system-decoration: [(g1)(g2)]
!!!RDF**kern: | = vertical stroke
!!!RDF**kern: > = above
!!!RDF**kern: < = below
!!!ENC: Marcin Jachim
!!!END: 2021-06-16
!!!EED: Antoni Szymański
!!!EST: 2021-06-22
